src/icons/IconDocAdd/IconDocAdd_size_xs.svg

<svg viewBox="0 0 12 12" xmlns="http://www.w3.org/2000/svg">
  <path
    fill-rule="evenodd"
    clip-rule="evenodd"
    d="M2 2C2 1.5 2.5 1 3 1H6.13758C6.38606 1 6.51106 1 6.61794 1.044C6.72612 1.08854 6.81575 1.17817 6.99609 1.35851L9.66482 4.0966C9.85962 4.2914 9.95414 4.38592 10 4.5C10.0432 4.60752 10.0432 4.73241 10.0432 4.975L10 10C10 10.5 9.5 11 9 11H3C2.5 11 2 10.5 2 10V2ZM9 4.5L6.5 2V4C6.5 4.27614 6.72386 4.5 7 4.5H8.25H9ZM6.5 5.5H5.5V7H4V8H5.5V9.5H6.5V8H8V7H6.5V5.5Z"
  />
</svg>

<svg viewBox="0 0 12 12" xmlns="http://www.w3.org/2000/svg">
  <path
    fill-rule="evenodd"
    clip-rule="evenodd"
    d="M2 2c0-.5.5-1 1-1h3.138c.248 0 .373 0 .48.044.108.045.198.134.378.315l2.669 2.738c.195.194.29.289.335.403.043.108.043.232.043.475L10 10c0 .5-.5 1-1 1H3c-.5 0-1-.5-1-1V2zm7 2.5L6.5 2v2a.5.5 0 00.5.5h2zm-2.5 1h-1V7H4v1h1.5v1.5h1V8H8V7H6.5V5.5z"
  />
</svg>
